X:1
T:O chiome erranti
T:O chiome erranti
T:Claudio Saracini
T:Source : Le seconde Musische per cantar e sonar---Venetia---A.Vincenti---1620. Editor : André Vierendeels (24/11/15).
T:Notes : Original clefs : C1, F4 Editorial accidentals above the staff Figures above the BC are notated in original print
C:Claudio Saracini
%%score 1 2
L:1/8
Q:1/4=84
M:4/4
K:C
V:1 treble nm="Soprano" snm="S"
V:2 bass nm="BC" snm="BC"
V:1
 B2 B>c d2 A2- | A G/A/ B/c/A/B/ G2 G2 | z B c/B/c/d/ e4 | BA B/A/B/c/ d3 d | d6 ^c2 | d4 d4 | %6
w: O chio- * * me,|_ er- * ran- * * * * ti,|O chio- * * * *|me Do- ra- * * * * te'in-|ne- nel-|la- te,|
 z2 e2 A4 | A2 G/A/B/c/ d2 d z | ce>dc d2 cB | cBcA BABG | A4 A2 d2 | B<c d<c B4 | A8 | A8 :: %14
w: O co-|me bel- * * * * le,|O co- m'e vo- la- t'e scher-|za- * * * * * * *|te, ben voi|scher- * zan- * d'er-|ra-|te.|
 z2 BB c4 | ^c6 c2 | d8 | d8 | e2 dc BdcB | A6 c2 | B8 | A8 | d2 cB AcBA |"^-natural" G6 B2 | A8 | %25
w: E son dol-|ci gl'er-|ro-|re,|ma non er- ra- te'in- al- lac-|cian- do'i|to-|ri,|ma non er- ra- te'in al- lac-|cian- do'i|to-|
 G8 :| %26
w: ri.|
V:2
 G,,6 D,2 | G,4 G,,4 | G,,2 C,6 | G,^F, G,2 G,,4- | G,,4 A,,4 | D,4 D,,4 | C,4 D,4- | %7
 D,2 G,2 G,,4 | C2 B,A, B,2 A,G, | A,4 G,4 | D,8 | E,8 | A,,8 | A,,8 :: G,,4 C,4 |"^#" A,,8 | %16
"^-natural" ^F,,8- | F,,8 | C,2 D,2 B,,4 | ^C,8 | E,8 | A,,8 | B,,2 C,2 ^F,,4 | E,4 B,,4 | D,8 | %25
 G,,8 :| %26

